!!!!SEGMENT: pl-wtm--r-2548--011_hertz-michal--jak-wam-sie-podoba-no-11.krn
!!!cenid: 18xx:3118
!!!COM: Hertz, Michał
!!!COM-rismID: pe41023359
!!!CDT: 1844/09/28-~1918
!!!CNT: Polish
!!!OPR: Jak wam się podoba
!!!OTL: No. 11
!!!OMV: 011
!!!PDT:
!!!AGN:
!!!SMS-siglum: PL-Wtm
!!!SMS-shelfmark: R 2548
!!!SMS-shelfwork: 001-011 M
!!!SMS-variant:
!!!SMS-altvar:
!!!NIFC-rismSourceID: 1001082244
!!!NIFC-rismChildID: 1001082244
!!!NIFC-islandoraID:
!!!URL-pdf-islandora:
!!!URL-scan:
!!!IIIF:
!!!ONB-nifc:
!!!OMD: Andantino.
!!!AIN: 1 piano
!!!key: C
**kern	**kern	**dynam
*part1	*part1	*part1
*staff2	*staff1	*
*I"[Piano]	*I"[Piano]	*
*Ipiano	*Ipiano	*
*ICklav	*ICklav	*
*clefF4	*clefG2	*
*k[]	*k[]	*
*C:	*C:	*
*M6/8	*M6/8	*
*all\right	*all\right	*
*>[A,B,A]	*>[A,B,A]	*
=1	=1	=1
*>A	*>A	*
*^	*	*
[2.G/	(4G\	4r	p
.	8F#X\	8r	.
.	4.Fn\)	8r	.
.	.	(8A/L	.
.	.	8B/J)	.
=2	=2	=2	=2
*	*	*^	*
4G/]	(8E\L	(8c/L	8r	.
.	8D\	8B/ 8d	8ryy	<
8G/	8C\J	8c/J 8e	2ryy	.
(8AA\L 8F	8ryy	8c/L 8f	.	.
8GG\ 8E	4ryy	8c/ 8g	.	.
8FF\J)) 8F	.	8c/J) 8a	.	[[
*v	*v	*	*	*
=3	=3	=3	=3
*2\right	*	*2\right	*
[2.GG\ [2.F	[4.g/	[2.B\	.
.	4g/]	.	.
.	8a/	.	.
!!LO:LB:g=original
=4	=4	=4	=4
*	*	*^	*
8GG\L] 8F]	8g/	8B\]	8ryy	.
(8G\	[4gg/	[4g\	8gg\L	.
8A-X\J)	.	.	8ff#X\J	.
!	!LO:TX:b:i:t=rit	!LO:TX:t=[segno]	!	!
(8An\L	4.gg/]	4.g\]	4.ffn\	>
8B-X\	.	.	.	.
!LO:TX:t=[segno]	!	!	!	!
8Bn\J)	.	.	.	]]
*	*v	*v	*v	*
=5||	=5||	=5||
*^	*	*
*	*	*tremolo	*
2.c/	8r	(16cc\LL 16ee 16gg	pp
.	.	16g\	.
.	8r	16cc\ 16ee 16gg	.
.	.	16g\	.
.	8C'>\	16cc\ 16ee 16gg	.
.	.	16g\	.
.	(>8D\L	16cc\ 16ee 16gg	.
.	.	16g\	.
.	8E\	16cc\ 16ee 16gg	.
.	.	16g\	.
.	8G\J)	16cc\ 16ee 16gg	.
.	.	16g\JJ)	.
=6	=6	=6	=6
2.A/	(>4A\	(16cc\LL 16ee 16aa	.
.	.	16a\	.
.	.	16cc\ 16ee 16aa	.
.	.	16a\	.
.	8B\	16cc\ 16ee 16aa	.
.	.	16a\	.
.	8c\L	16cc\ 16ee 16aa	.
.	.	16a\	.
.	8d\	16cc\ 16ee 16aa	.
.	.	16a\	.
.	8e\J)	16cc\ 16ee 16aa	.
.	.	16a\JJ)	.
*	*	*Xtremolo	*
*v	*v	*	*
=7	=7	=7
[4.d>\ [4.cc>	(8ee/L 8aa	<
.	8gg/ 8bb	.
.	8gg/J) 8ccc	.
4d>\] 4cc>]	((4gg/ 4bb	.
8d>\ 8cc>	8ff/)) 8aa	[[
!!LO:LB:g=original
=8	=8	=8
2.g>\ 2.b> 2.ff>	(<8gg/L	>
.	8ddd/	.
.	8eee/J)	.
.	(<8ddd/L	.
.	8gg/J)	.
.	8r	]]
=9	=9	=9
*^	*	*
*	*	*tremolo	*
2.c/	8r	(16cc\LL 16ee 16gg	pp
.	.	16g\	.
.	8r	16cc\ 16ee 16gg	.
.	.	16g\	.
.	8C/	16cc\ 16ee 16gg	.
.	.	16g\	.
.	(>8D\L	16cc\ 16ee 16gg	.
.	.	16g\	.
.	8E\	16cc\ 16ee 16gg	.
.	.	16g\	.
.	8G\J)	16cc\ 16ee 16gg	.
.	.	16g\JJ)	.
=10	=10	=10	=10
2.A/	(>4A\	(16cc\LL 16ee 16aa	.
.	.	16a\	.
.	.	16cc\ 16ee 16aa	.
.	.	16a\	.
.	8B\	16cc\ 16ee 16aa	.
.	.	16a\	.
.	8c\L	16cc\ 16ee 16aa	.
.	.	16a\	.
.	8d\	16cc\ 16ee 16aa	.
.	.	16a\	.
.	8e\J)	16cc\ 16ee 16aa	.
.	.	16a\JJ)	.
*	*	*Xtremolo	*
*v	*v	*	*
!!LO:LB:g=original
=11	=11	=11
[4.d>\ [4.cc>	(8ee/L 8aa	.
.	8gg/ 8bb	<
.	8gg/J) 8ccc	.
4d>\] 4cc>]	((4gg/ 4bb	.
8c>\	8ff/)) 8aa	[[
=12	=12	=12
*	*^	*
(<4.B>\	(<8gg/L	(<(<(<4.dd\ 4.ff	.
.	8ddd/	.	.
.	8eee/J)	.	.
!	!LO:TX:b:i:t=Fine	!	!
4.c>\)	4.ccc/	4.cc\))) 4.ee 4.gg	.
*	*v	*v	*
=13||	=13||	=13||
*>B	*>B	*
*clefG2	*	*
!LO:TX:t=P:problem=brak zmiany klucza	!	!
((4.e/ 4.g#X	([4.ee\ 4.bb	p
4A/)) 4a	4ee\]) 4ccc	.
8c/ 8a	8ee\ 8aa	.
=14	=14	=14
*	*^	*
((4.e/ 4.g#X	(4bb/	[4.ee\	.
.	8eee/	.	.
4A/)) 4a	4ee\] 4ccc	4ryy	.
8c/ 8a	8ee\) 8aa	8ryy	.
!!LO:LB:g=original
=15	=15	=15	=15
*^	*	*	*
(4.b/	2.B\	(4.gg#X/	(4.ee\	<
4.a/)	.	4bb/	4.dd#X\)	.
.	.	8ccc#X/)	.	[[
*v	*v	*	*	*
=16	=16	=16	=16
(>4e/ 4g#X	[4.bb/	8ee\L	.
.	.	(>8ee\	>
8e#X/ 8g#	.	[8dd#X\J)	.
4.f#X/) 4.a	4bb/]	8dd#\L]	.
.	.	(>8cc##X\	.
.	8bb/	8dd#\J)	]
*	*v	*v	*
=17	=17	=17
((4.e/ 4.g#X	([4.ee\ 4.bb	p
4A/)) 4a	4ee\]) 4ccc	.
8c/ 8a	8ee\ 8aa	.
=18	=18	=18
*	*^	*
((4.e/ 4.g#X	(4bb/	[4.ee\	.
.	8eee/	.	.
4A/)) 4a	4ccc/	4ee\]	.
8c/ 8a	8aa/)	8ee\	.
!!LO:LB:g=original
=19	=19	=19	=19
4.d/ 4.b	(4.gg/	(4.dd\	<
4.d/ 4.f#X	4aa/	4.cc\)	.
.	8bb/)	.	[[
=20	=20	=20	=20
(4g\	8gg/L	4.b\	.
.	(<8gg/	.	>
8g#X\	8ff#X/J	.	.
8a\L	8ffn/L	4b\	.
8gn\	8ee/	.	.
!LO:TX:t=[segno]	!LO:TX:t=[segno]	!	!
8g\J)	8dd/J)	8b\	]]
*	*v	*v	*
==	==	==
*-	*-	*-
!!!system-decoration: {(s1,s2)}
!!!RDF**kern: < = below
!!!RDF**kern: > = above
!!!ENC: Anastazja Marusiak
!!!END: 2021-11-03
!!!ENC: Marta Chmielewska
!!!END: 2021-11-05
!!!YEC: Copyright 2022 Narodowy Instytut Fryderyka Chopina (https://polishscores.org)
!!!YEM: License CC-BY-4.0 (https://creativecommons.org/licenses/by/4.0)
